src/images/icons/yt-red.svg

<svg width="28" height="22" viewBox="0 0 28 22" fill="none" xmlns="http://www.w3.org/2000/svg">
<path fill-rule="evenodd" clip-rule="evenodd" d="M25.9658 2.27896C26.785 3.16388 27.0515 5.17373 27.0515 5.17373C27.0515 5.17373 27.3248 7.53208 27.3248 9.89129V12.1019C27.3248 14.4611 27.0515 16.8194 27.0515 16.8194C27.0515 16.8194 26.7841 18.8284 25.9658 19.7116C25.0287 20.7574 23.9901 20.8659 23.4035 20.9272C23.3395 20.9339 23.2808 20.94 23.2282 20.9468C19.4041 21.2398 13.6624 21.25 13.6624 21.25C13.6624 21.25 6.55744 21.1808 4.37162 20.957C4.26817 20.9364 4.14284 20.9203 4.00094 20.902C3.30872 20.8131 2.22237 20.6734 1.35898 19.7108C0.539833 18.8276 0.273333 16.8186 0.273333 16.8186C0.273333 16.8186 0 14.4611 0 12.101V9.89044C0 7.53208 0.273333 5.17373 0.273333 5.17373C0.273333 5.17373 0.540688 3.16388 1.35898 2.27896C2.30026 1.22949 3.34222 1.12393 3.92755 1.06463C3.98917 1.05839 4.04573 1.05266 4.09658 1.0464C7.91983 0.75 13.6556 0.75 13.6556 0.75H13.6684C13.6684 0.75 19.4041 0.75 23.2282 1.0464C23.2791 1.05266 23.3357 1.0584 23.3973 1.06464C23.9828 1.12394 25.0253 1.22953 25.9658 2.27896ZM18.7917 11L10.25 16.125V5.875L18.7917 11Z" fill="#F03E3E"/>
</svg>

<svg width="28" height="22" fill="none" xmlns="http://www.w3.org/2000/svg"><path fill-rule="evenodd" clip-rule="evenodd" d="M25.966 2.279c.819.885 1.085 2.895 1.085 2.895s.274 2.358.274 4.717v2.21c0 2.36-.273 4.718-.273 4.718s-.268 2.01-1.086 2.893c-.937 1.045-1.976 1.154-2.563 1.215l-.175.02c-3.824.293-9.566.303-9.566.303s-7.105-.07-9.29-.293a6.3 6.3 0 0 0-.371-.055c-.692-.089-1.779-.229-2.642-1.191-.82-.883-1.086-2.892-1.086-2.892S0 14.46 0 12.1V9.89a47 47 0 0 1 .273-4.717s.268-2.01 1.086-2.895c.941-1.05 1.983-1.155 2.569-1.214.061-.007.118-.012.169-.019C7.92.75 13.656.75 13.656.75h.012s5.736 0 9.56.296c.051.007.108.012.17.019.585.059 1.627.165 2.568 1.214ZM18.792 11l-8.542 5.125V5.875L18.792 11Z" fill="#F03E3E"/></svg>
